polaris-icons/icons/new-icons/DockSideMajor.svg

<svg width="20" height="20" viewBox="0 0 20 20" fill="none" xmlns="http://www.w3.org/2000/svg">
<path d="M11 6C10.4477 6 10 6.44772 10 7V13C10 13.5523 10.4477 14 11 14H13C13.5523 14 14 13.5523 14 13V7C14 6.44772 13.5523 6 13 6H11Z" fill="#4A4A4A"/>
<path fill-rule="evenodd" clip-rule="evenodd" d="M7.25 3.5C5.17893 3.5 3.5 5.17893 3.5 7.25V12.75C3.5 14.8211 5.17893 16.5 7.25 16.5H12.75C14.8211 16.5 16.5 14.8211 16.5 12.75V7.25C16.5 5.17893 14.8211 3.5 12.75 3.5H7.25ZM5 7.25C5 6.00736 6.00736 5 7.25 5H12.75C13.9926 5 15 6.00736 15 7.25V12.75C15 13.9926 13.9926 15 12.75 15H7.25C6.00736 15 5 13.9926 5 12.75V7.25Z" fill="#4A4A4A"/>
</svg>

<svg viewBox="0 0 20 20" xmlns="http://www.w3.org/2000/svg"><path d="M11 6a1 1 0 0 0-1 1v6a1 1 0 0 0 1 1h2a1 1 0 0 0 1-1v-6a1 1 0 0 0-1-1h-2Z" fill="#5C5F62"/><path fill-rule="evenodd" d="M7.25 3.5a3.75 3.75 0 0 0-3.75 3.75v5.5a3.75 3.75 0 0 0 3.75 3.75h5.5a3.75 3.75 0 0 0 3.75-3.75v-5.5a3.75 3.75 0 0 0-3.75-3.75h-5.5Zm-2.25 3.75a2.25 2.25 0 0 1 2.25-2.25h5.5a2.25 2.25 0 0 1 2.25 2.25v5.5a2.25 2.25 0 0 1-2.25 2.25h-5.5a2.25 2.25 0 0 1-2.25-2.25v-5.5Z" fill="#5C5F62"/></svg>
